X: 1728
T: Moylan Bros of Bluff Rock
B: australian traditional tunes wiki
M:2/4
L:1/16
R: Set Tune
Q: 1/4=100
K:D
V:1 
A2|"D"Bcdc B2A2|F2A4A2|Bcdc B2A2|"G"G2B4A2|"A"c3e c2A2|c3e c2A2|c3e c2A2|"D"F2A4A2|
B3c B2A2|F2A4A2|Bcdc B2A2|"G"G2B4A2|"A"c3e c2A2|c3e c2A2|B2A2 B2c2|"D"d4d3e||
"D"f2e2 d2cB|A3B A2FF|A2FF A2F2|"G"G4G2f2|"A"g2f2 e2d2|c3d c2BB|B2A4F2|"D"A6de|
f2e2 d2cB|"D"A3B A2FF|A2FF A2F2|"G"G6cd|"A"e2d2 c2d2|c2c4B2|A2B4c2|"D"d6z2||
% abcbook-tune_id 6342d53a9335f64360c43ae9


% abcbook-boost 0
% abcbook-tablature 
% abcbook-transpose 
% abcbook-lastupdated 1665324380411
% abcbook-soundfonts 
% abcbook-repeats 1
% NFF Book 2015

